<?xml version="1.0" encoding="UTF-8"?>
<map version="1.10" tiledversion="1.12.2" orientation="orthogonal" renderorder="right-down" width="24" height="16" tilewidth="16" tileheight="16" infinite="0" nextlayerid="2" nextobjectid="1">
 <tileset firstgid="1" source="../tileset/tileset_test.tsx"/>
 <layer id="1" name="Tile Layer 1" width="24" height="16">
  <data encoding="csv">
3213,3213,3213,3213,3214,3214,3214,3214,3214,3214,3214,3214,3214,3214,3214,3214,3214,3214,3214,3214,3213,3213,3213,3213,
3213,3213,3213,3213,3214,3214,3214,3214,3214,3214,3214,3214,3214,3214,3214,3214,3214,3214,3214,3214,3213,3213,3213,3213,
3213,3213,3213,3213,3636,3214,3214,3214,3636,3636,3636,3636,3636,3636,3636,3636,3214,3214,3214,3651,3213,3213,3213,3213,
3213,3213,3213,3213,3636,3214,3214,3214,3214,3214,3214,3214,3214,3214,3214,3214,3214,3214,3214,3651,3213,3213,3213,3213,
3213,3213,3213,3213,3636,3214,3214,3214,3214,3214,3214,3214,3214,3214,3214,3214,3214,3214,3214,3651,3213,3213,3213,3213,
3213,3213,3213,3213,3636,3214,3214,3214,3214,3214,3214,3214,3214,3214,3214,3214,3214,3214,3214,3651,3213,3213,3213,3213,
3213,3213,3213,3213,3636,3214,3214,3214,3214,3214,3214,3214,3214,3214,3214,3214,3214,3214,3214,3651,3213,3213,3213,3213,
3213,3213,3213,3213,3636,3214,3214,3214,3214,3214,3214,3214,3214,3214,3214,3214,3214,3214,3214,3651,3213,3213,3213,3213,
3213,3213,3213,3213,3636,3214,3214,3214,3214,3214,3214,3214,3214,3214,3214,3214,3214,3214,3214,3651,3213,3213,3213,3213,
3213,3213,3213,3213,3636,3214,3214,3214,3214,3214,3214,3214,3214,3214,3214,3214,3214,3214,3214,3651,3213,3213,3213,3213,
3213,3213,3213,3213,3636,3214,3214,3214,3214,3214,3214,3214,3214,3214,3214,3214,3214,3214,3214,3651,3213,3213,3213,3213,
3213,3213,3213,3213,3636,3214,3214,3214,3636,3636,3636,3636,3636,3636,3636,3636,3214,3214,3214,3651,3213,3213,3213,3213,
3213,3213,3213,3213,3636,3214,3214,3214,3636,3636,3636,3636,3636,3636,3636,3636,3214,5548,5549,5550,3213,3213,3213,3213,
3213,3213,3213,3213,3636,3214,3214,3214,3636,3636,3636,3636,3636,3636,3636,3636,3214,5759,5760,5761,3213,3213,3213,3213,
3213,3213,3213,3213,5957,5957,5957,5957,5957,5957,5957,5957,5957,5957,5957,5957,5957,5957,5957,5957,3213,3213,3213,3213,
3213,3213,3213,3213,5957,5957,5957,5957,5957,5957,5957,5957,5957,5957,5957,5957,5957,5957,5957,5957,3213,3213,3213,3213
</data>
 </layer>
</map>
