<?xml version="1.0" encoding="UTF-8"?>
<map version="1.10" tiledversion="1.12.2" orientation="orthogonal" renderorder="right-down" width="154" height="16" tilewidth="16" tileheight="16" infinite="0" nextlayerid="3" nextobjectid="5">
 <tileset firstgid="1" source="../tileset/world1_4.tsx"/>
 <layer id="1" name="Tile Layer 1" width="154" height="16">
  <data encoding="csv">
1,1,1,1,1,1,1,1,1,1,1,1,1,1,1,1,1,1,1,1,1,1,1,1,1,1,1,1,1,1,1,1,1,1,1,1,1,1,1,1,1,1,1,1,1,1,1,1,1,1,1,1,1,1,1,1,1,1,1,1,1,1,1,1,1,1,1,1,1,1,1,1,1,1,1,1,1,1,1,1,1,1,1,1,1,1,1,1,1,1,1,1,1,1,1,1,1,1,1,1,1,1,1,1,1,1,1,1,1,1,1,1,1,1,1,1,1,1,1,1,1,1,1,1,1,1,1,1,1,1,1,1,1,1,1,1,1,1,1,1,1,1,1,1,1,1,1,1,1,1,1,1,1,1,
1,1,1,1,1,1,1,1,1,1,1,1,1,1,1,1,1,1,1,1,1,1,1,1,1,1,1,1,1,1,1,1,1,1,1,1,1,1,1,1,1,1,1,1,1,1,1,1,1,1,1,1,1,1,1,1,1,1,1,1,1,1,1,1,1,1,1,1,1,1,1,1,1,1,1,1,1,1,1,1,1,1,1,1,1,1,1,1,1,1,1,1,1,1,1,1,1,1,1,1,1,1,1,1,1,1,1,1,1,1,1,1,1,1,1,1,1,1,1,1,1,1,1,1,1,1,1,1,1,1,1,1,1,1,1,1,1,1,1,1,1,1,1,1,1,1,1,1,1,1,1,1,1,1,
321,322,323,324,325,326,327,328,329,330,331,332,333,334,335,336,337,338,339,340,341,342,343,344,345,346,347,348,349,350,351,352,353,354,355,356,357,358,359,360,361,362,363,364,365,366,367,368,369,370,371,372,373,374,375,376,377,378,379,380,381,382,383,384,385,386,387,388,389,390,391,392,393,394,395,396,397,398,399,400,401,402,403,404,405,406,407,408,409,410,411,412,413,414,415,416,417,418,419,420,421,422,423,424,425,426,427,428,429,430,431,432,433,434,435,436,437,438,439,440,441,442,443,444,445,446,447,448,449,450,451,452,453,454,455,456,457,458,459,460,461,462,463,464,465,466,467,468,469,470,471,472,473,474,
321,322,323,324,325,326,321,322,323,324,325,326,327,328,329,330,331,332,333,334,335,336,337,338,1,1,1,1,1,1,1,1,1,1,1,1,1,321,322,323,324,325,326,327,328,329,330,331,332,333,334,335,336,321,321,321,321,322,323,321,321,321,321,322,323,324,325,326,327,328,329,330,1,1,1,1,1,1,1,1,480,1,1,1,1,1,1,1,480,1,1,1,1,1,1,1,1,480,480,480,480,480,480,480,1,1,1,1,1,1,1,1,1,1,1,1,1,1,1,1,1,1,1,480,480,480,480,480,1,1,1,1,1,1,1,1,1,1,1,1,1,1,480,480,1,1,1,1,1,1,1,1,1,1,
321,322,323,324,325,326,327,328,329,330,331,332,333,334,335,336,337,338,333,334,335,336,337,338,1,1,1,1,1,1,1,1,1,1,1,1,1,321,322,323,324,325,326,327,328,329,330,331,332,333,334,335,336,321,322,323,321,321,321,321,322,323,321,321,322,323,324,325,326,327,328,329,1,1,1,1,1,1,1,1,984,1,1,1,1,1,1,1,984,1,1,1,1,1,1,1,1,480,480,480,480,480,480,480,1,1,1,1,1,1,1,1,1,1,1,1,1,1,1,1,1,1,1,480,480,480,480,480,1,1,1,1,1,1,1,1,1,1,1,1,1,1,480,480,1,1,1,1,1,1,1,1,1,1,
321,322,323,324,325,326,327,328,329,321,322,323,324,321,322,323,324,325,326,327,328,329,330,337,1,1,1,1,1,1,1,1,1,1,1,1,1,321,322,323,324,325,326,327,328,329,330,331,332,333,334,335,336,321,322,323,324,325,326,327,328,329,330,321,322,323,324,325,326,327,328,329,1,1,1,1,1,1,1,1,1,1,1,1,1,1,1,1,1,1,1,1,1,1,1,1,1,1,1,1,1,1,1,1,1,1,1,1,1,1,1,1,1,1,1,1,1,1,1,1,1,1,1,1,1,1,1,1,1,1,1,1,1,1,1,1,1,1,1,1,1,1,480,480,1,1,1,1,1,1,1,1,1,1,
1,1,1,1,1,1,1,1,1,1,1,1,1,1,1,1,1,1,1,1,1,1,1,1601,1,1,1,1,1,1,1,1,1,1,1,1,1,984,1,1,1,1,1,1,1,1,1,1,984,1,1,1,1,1,1,1,1,1,1,984,1,1,1,1,1,1,984,1,1,1,1,1,1,1,1,1,1,1,1,1,1,1,1,1,1,1,1,1,1,1,1,1,1,1,1,1,1,1,1,1,1,1,1,1,1,1,1,1547,1,1,1547,1,1,1547,1,1,1,1,1,1,1,1,1,1,1,1,1,1,1,1,1,1,1,1,1,1,1,1,1,1,1,1,1,1,1,1,1,1,1,1,1,1,1,1,
1,1,1,1,1,1,1,1,1,1,1,1,1,1,1,1,1,1,1,1,1,1,1,984,1,1,1,1,1,1,1,1,1,1,1,1,1,1,1,1,1,1,1,1,1,1,1,1,1,1,1,1,1,1,1,1,1,1,1,1,1,1,1,1,1,1,1,1,1,1,1,1,1,1,1,1,1,1,1,1,1,1,1,1,1,1,1,1,1,1,1,1,1,1,1,1,1,1,1,1,1,1,1,1,1,1,1,1,1,1,1,1,1,1,1,1,1,1,1,1,1,1,1,1,1,1,1,1,1,1,1,1,1,1,1,1,1,1,1,1,1,1,1,1,1,1,1,1,1,1,1,1,1,1,
1601,1601,1601,1,1,1,1,1,1,1,1,1,1,1,1,1,1,1,1,1,1,1,1,1,1,1,1,1,1,1,1,1,1,1,1,1,1,1,1,1,1,1,1,1,1,1,1,1,1,1,1,1,1,1,1,1,1,1,1,1,1,1,1,1,1,1,1,1,1,1,1,1,1,1,1,1,1,1,1,1,1,1,1,1,1,1,1,1,1,1,1,1,1,1,1,1,1,1,1,1,1,1,1,1,1,1,1,1,1,1,1,1,1,1,1,1,1,1,1,1,1,1,1,1,1,1,1,1,1,1,1,1,1,1,1,1,1,1,1,1,1,1,1,1,1,1,1,1,1,1,1,1,1,1,
1601,1601,1601,1601,1,1,1,1,1,1,1,1,1,1,1,1,1,1,1,1,1,1,1,1,1,1,1,1,1,1,1,1,1,1,1,1,1,1,1,1,1,1,1,1,1,1,1,1,1,1,1,1,1,1,1,1,1,1,1,1,1,1,1,1,1,1,1,1,1,1,1,1,1,1,1,1,1,1,1,1,1,1,1,1,1,1,1,1,1,1,1,1,1,1,1,1,1,1,1,1,1,1,1,1,1,1,1,1,1,1,1,1,1,1,1,1,1,1,1,1,1,1,1,1,1,1,1,1,1,1,1,1,1,1,1,1,1,1,1,1,1,1422,1,1,1,1,1,1,1,1,1,1,1,1,
1601,1601,1601,1601,1601,1601,1,1,1,1,1,1,1,1,1,1,1,1,1,1,1,1,1,1,1,1,1,1,1,1,1,1,1,1,1,1601,1601,1601,1601,1601,1601,1601,1601,1601,1601,1601,1601,1601,1601,1601,1601,1601,1601,1601,1601,1601,1601,1601,1601,1601,1601,1601,1601,1601,1601,1601,1601,1601,1601,1601,1601,1601,1,1,1,1,984,1,1,1,1,1,1,1,984,1,1,1,1,1,1,1,1,984,1,1,1,1,1,1,1,1,1,1,1,1,1547,1,1,1547,1,1,1547,1,1,1,1,1,1,1,1,1,1,1,1,1,1,321,1,1,1,1,1,1,1,1,1,1,1,1,1581,1601,1601,1601,1,1,1,1,1,1,1,1,1,1,
1601,1601,1601,1601,1601,1601,1601,1601,1601,1601,1601,1601,1601,1614,1615,1601,1601,1601,1601,1601,1601,1601,1601,1601,1601,1601,1627,1628,1629,1601,984,1601,1633,1634,1,1601,1601,1601,1601,1601,1601,1601,1601,1601,1601,1601,1601,1601,1601,1601,1601,1601,1601,1601,1601,1601,1601,1601,1601,1601,1601,1601,1601,1601,1601,1601,1601,1601,1601,1601,1601,1601,1601,1601,1601,1601,1601,1601,1601,1601,1601,1601,1601,1601,1601,1601,1601,1601,1601,1601,1601,1601,1601,1601,1601,1601,1601,1601,1601,1601,1601,1601,1601,1601,1705,1706,1707,1708,1,1,1,1712,1713,1714,1715,1716,1601,1601,1601,1601,1721,1722,1723,1601,1601,1601,1601,1601,1729,1730,1731,1732,1733,1734,1735,1736,1737,1738,1739,1740,1741,1601,1601,1601,1745,1746,1747,1748,1749,1750,1751,1752,1753,1754,
1601,1601,1601,1601,1601,1601,1601,1601,1601,1601,1601,1601,1601,1774,1775,1601,1601,1601,1601,1601,1601,1601,1601,1601,1601,1601,1787,1788,1789,1601,1601,1601,1793,1794,1795,1601,1601,1601,1601,1601,1601,1601,1601,1601,1601,1601,1601,1601,1601,1601,1601,1601,1601,1601,1601,1601,1601,1818,1819,1820,1821,1822,1823,1824,1825,1826,1827,1828,1829,1830,1831,1832,1833,1834,1601,1601,1601,1601,1601,1601,1601,1601,1601,1601,1601,1601,1601,1848,1849,1850,1601,1601,1601,1601,1601,1601,1601,1601,1601,1601,1601,1601,1601,1601,1865,1866,1867,1868,1869,1870,1871,1872,1873,1874,1875,1876,1601,1601,1601,1601,1881,1882,1883,1601,1601,1601,1601,1601,1889,1890,1891,1892,1893,1894,1895,1896,1897,1898,1899,1900,1901,1601,1903,1601,1905,1906,1907,1908,1909,1910,1911,1912,1913,1914,
1601,1601,1601,1601,1601,1601,1601,1601,1601,1601,1601,1601,1601,1934,1935,1601,1601,1601,1601,1601,1601,1601,1601,1601,1601,1601,1947,1948,1949,1601,1601,1601,1953,1954,1955,1601,1601,1601,1601,1601,1601,1601,1601,1601,1601,1601,1601,1601,1601,1601,1601,1601,1601,1601,1975,1976,1977,1978,1979,1980,1981,1982,1983,1984,1985,1986,1987,1988,1989,1990,1991,1992,1993,1994,1601,1601,1601,1601,1601,1601,1601,2002,2003,2004,2005,2006,2007,2008,2009,1601,1601,1601,1601,1601,1601,1601,1601,1601,1601,2020,2021,1601,1601,1601,2025,2026,2027,2028,2029,2030,2031,2032,2033,2034,2035,2036,1601,1601,1601,1601,2041,2042,2043,1601,1601,1601,1601,1601,2049,2050,2051,2052,2053,2054,2055,2056,2057,2058,2059,2060,2061,1601,1601,1601,2065,2066,2067,2068,2069,2070,2071,2072,2073,2074,
2081,2082,2083,2084,2085,2086,2087,2088,2089,2090,2091,2092,2093,2094,2095,2096,2097,2098,2099,2100,2101,2102,2103,2104,2105,2106,2107,2108,2109,2110,2111,2112,2113,2114,2115,2116,2117,2118,1601,1601,1601,1601,1601,1601,1601,1601,1601,1601,1601,1601,1601,1601,1601,1601,1601,2136,2137,2138,2139,2140,2141,2142,2143,2144,2145,2146,2147,2148,2149,2150,2151,2152,2153,2154,2155,2156,2157,2158,2159,2160,2161,2162,2163,2164,2165,2166,2167,1601,1601,1601,1601,1601,2173,2174,2175,2176,2177,2178,2179,2180,2181,2182,1601,1601,1601,1601,1601,1601,1601,1601,1601,1601,1601,1601,1601,1601,1601,1601,2199,2200,2201,2202,2203,2204,2205,2206,2207,2208,2209,2210,2211,2212,2213,2214,2215,2216,2217,2218,2219,2220,2221,2222,2223,2224,2225,2226,2227,2228,2229,2230,2231,2232,2233,2234,
2241,2242,2243,2244,2245,2246,2247,2248,2249,2250,2251,2252,2253,2254,2255,2256,2257,2258,2259,2260,2261,2262,2263,2264,2265,2266,2267,2268,2269,2270,2271,2272,2273,2274,2275,2276,2277,2278,2279,2280,2281,2282,2283,2284,2285,2286,2287,2288,2289,2290,2291,2292,2293,2294,2295,2296,2297,2298,2299,2300,2301,2302,2303,2304,2305,2306,2307,2308,2309,2310,2311,2312,2313,2314,2315,2316,2317,2318,2319,2320,2321,2322,2323,2324,2325,2326,2327,2328,2329,2330,2331,2332,2333,2334,2335,2336,2337,2338,2339,2340,2341,2342,2343,2344,2345,2346,2347,2348,2349,2350,2351,2352,2353,2354,2355,2356,2357,2358,2359,2360,2361,2362,2363,2364,2365,2366,2367,2368,2369,2370,2371,2372,2373,2374,2375,2376,2377,2378,2379,2380,2381,2382,2383,2384,2385,2386,2387,2388,2389,2390,2391,2392,2393,2394
</data>
 </layer>
 <objectgroup id="2" name="Object">
  <object id="1" name="PlayerSpawn" x="116.5" y="160.5"/>
  <object id="2" x="272.5" y="-98" width="0.5" height="0.5"/>
  <object id="3" name="Boss" x="2142" y="123.5"/>
  <object id="4" x="2033" y="304"/>
 </objectgroup>
</map>
