<?xml version="1.0" encoding="UTF-8"?>
<map version="1.10" tiledversion="1.12.2" orientation="orthogonal" renderorder="right-down" width="154" height="16" tilewidth="16" tileheight="16" infinite="0" nextlayerid="3" nextobjectid="25">
 <tileset firstgid="1" source="../tileset/world1_3.tsx"/>
 <layer id="1" name="Terrain" width="154" height="16">
  <data encoding="csv">
1,1,1,1,1,1,1,1,1,1,1,1,1,1,1,1,1,1,1,1,1,1,1,1,1,1,1,1,1,1,1,1,1,1,1,1,1,1,1,1,1,1,1,1,1,1,1,1,1,1,1,1,1,1,1,1,1,1,1,1,1,1,1,1,1,1,1,1,1,1,1,1,1,1,1,1,1,1,1,1,1,1,1,1,1,1,1,1,1,1,1,1,1,1,1,1,1,1,1,1,1,1,1,1,1,1,1,1,1,1,1,1,1,1,1,1,1,1,1,1,1,1,1,1,1,1,1,1,1,1,1,1,1,1,1,1,1,1,1,1,1,1,1,1,1,1,1,1,1,1,1,1,1,1,
1,1,1,1,1,1,1,1,1,1,1,1,1,1,1,1,1,1,1,1,1,1,1,1,1,1,1,1,1,1,1,1,1,1,1,1,1,1,1,1,1,1,1,1,1,1,1,1,1,1,1,1,1,1,1,1,1,1,1,1,1,1,1,1,1,1,1,1,1,1,1,1,1,1,1,1,1,1,1,1,1,1,1,1,1,1,1,1,1,1,1,1,1,1,1,1,1,1,1,1,1,1,1,1,1,1,1,1,1,1,1,1,1,1,1,1,1,1,1,1,1,1,1,1,1,1,1,1,1,1,1,1,1,1,1,1,1,1,1,1,1,1,1,1,1,1,1,1,1,1,1,1,1,1,
1,1,1,1,1,1,1,1,1,1,1,1,1,1,1,1,1,1,1,1,1,1,1,1,1,1,1,1,1,1,1,1,1,1,1,1,1,1,1,1,1,1,1,1,1,1,1,1,1,1,1,1,1,1,1,1,1,1,1,1,1,1,1,1,1,1,1,1,1,1,1,1,1,1,1,1,1,1,1,1,1,1,1,1,1,1,1,1,1,1,1,1,1,1,1,1,1,1,1,1,1,1,1,1,1,1,1,1,1,1,1,1,1,1,1,1,1,1,1,1,1,1,1,1,1,1,1,1,1,1,1,1,1,1,1,1,1,1,1,1,1,1,1,1,1,1,1,1,1,1,1,1,1,1,
1,1,1,1,1,1,1,1,1,1,1,1,1,1,1,1,1,1,1,1,1,1,1,1,1,1,1,1,1,1,1,1,1,1,1,1,1,1,1,1,1,1,1,1,1,1,1,1,1,1,1,1,1,1,1,1,1,1,1,1,1,1,1,1,1,1,1,1,1,1,1,1,1,1,1,1,1,1,1,1,1,1,1,1,1,1,1,1,1,1,1,1,1,1,1,1,1,1,1,1,1,1,1,1,1,1,1,1,1,1,1,1,1,1,1,1,1,1,1,1,1,1,1,1,1,1,1,1,1,1,1,1,1,1,1,1,1,1,1,1,1,1,481,1,1,484,485,486,487,488,489,490,491,492,
1,1,1,1,1,1,1,1,1,1,1,1,1,1,1,1,1,1,1,1,1,1,1,1,1,1,1,1,1,1,1,1,1,1,1,1,1,1,1,1,1,1,1,1,1,1,1,1,1,1,1,1,1,1,1,1,1,1,1,1,1,1,1,1,1,1,1,1,1,1,1,1,1,1,1,1,1,1,1,1,1,1,1,1,1,1,1,1,1,1,1,1,1,1,1,1,1,1,1,1,1,1,1,1,1,1,1,1,1,1,1,1,1,1,1,1,1,1,1,1,1,1,1,1,1,1,1,1,1,1,1,1,1,1,1,1,1,1,1,1,1,644,645,1,1,648,649,650,651,652,653,654,655,656,
1,1,1,1,1,1,1,1,1,1,1,1,1,1,1,1,1,1,1,1,1,1,1,1,1,1,1,1,1,1,1,1,1,1,1,1,1,1,1,1987,1988,1988,1988,1988,1988,1990,1,1,1,1,1,1,1,1,1,1,1,1,1,1,1,1,1,1,1,1,1,1,1,1,1,1,1,1,1,1,1,1,1,1,1,1,1,1,1,1,1,1,1,1,1,1,1,1,1,1,1,1,1,1,1,1,1,1,1,1,1,1,1,1,1,1,1,1,1,1,1,1,1,1,1,1,1,1,1,1,1,1,1,1,1,1,1,1,1,1,1,1,1,1,1,1,809,1,1,812,813,814,815,816,817,818,819,820,
1,1,1,1,1,1,1,1,1,1,1,1,1,1,1,1,1,1,1,1,1,1,1,1,1,1,1987,1988,1989,1989,1990,1,1,1,1,1,1,1,1,1,2316,2316,2316,2316,2316,1,1,1,1,1,1,1,1,1,1,1,1,1,1,1987,1988,1988,1990,1,1,1,1,1,1,1,1,1,1,1,1,1,1,1,1,1,1,1,1,1,1,1,1,1,1,1,1,1,1,1,1,1,1,1,1,1,1,1,1,1,1,1,1,1,1,1,1,1,1,1,1,1,1,1,1,1,1,1,1,1,1,1,1,1,1,1,1,1,963,964,1,1,1,1,1,1,1,1,973,1,1,976,977,978,979,980,981,982,983,984,
1,1,1,1,1,1,1,1,1,1,1,1,1,1,1,1,1,1,1,1,1,1,1,1,1,1,1,2152,2152,2153,1,1,1,1,1,1,1,1,1,1,2316,2316,2316,2316,2316,1,1,1,1,1,1,1,1,1,1,1,1,1,1,1,2316,2316,1,1,1,1,1,1,1,1,1,1,1,1,1,1987,1988,1988,1988,1988,1990,1,1,1,1,1,1,1,1,1,1,1,1,1,1,1,1,1,1,1,1,1,1,1,1,1,1,1,1,1,1,1,1,1,1,1,1,1,1,1,1,1,1,1,1,1,1,1,1,1,1,1,1127,1128,1,1,1,1,1,1,1,1,1137,1,1,1140,1141,1142,1143,1144,1145,1146,1147,1148,
1,1,1,1,1,1,1,1,1,1,1,1,1,1,1,1,1,1,1,1,1,1,1,1,1,1,1,2152,2316,2317,1,1,1,1,1,1,1,1,1,1,2316,2316,2316,2316,2316,1,1,1,1,1,1,1,1,1,1,1,1,1,1,1,2316,2316,1,1,1,1,1,1,1,1,1,1,1,1,1,1,2316,2316,2316,2316,1,1,1,1,1,1,1,1,1,1,1,1,1,1,1,1,1987,1988,1988,1988,1988,1990,1,1,1,1,1,1,1,1,1,1,1,1,1,1,1,1,1,1,1,1,1,1,1,1,1,1,1,1,1289,1290,1291,1292,1,1,1,1,1,1,1,1,1301,1,1,1304,1305,1306,1307,1308,1309,1310,1311,1312,
1313,1314,1315,1316,1317,1,1,1,1,1,1,1,1,1,1,1,1,1,1,1,1,1,1,1,1,1,1,2316,2316,2317,1,1,1,1,1,1987,1988,1988,1990,1,2316,2316,2316,2316,2316,1,1,1,1,1,1,1,1,1,1,1,1,1,1,1,2316,2316,1,1,1,1,1,1,1,1,1,1,1,1,1,1,2316,2316,2316,2316,1,1,1,1,1,1,1,1,1,1,1,1,1,1,1,1,1,2153,2153,2153,2153,1,1,1,1,1,1,1,1,1,1,1,1,1,1,1,1,1,1,1,1,1,1,1,1,1,1,1,1,1,1453,1454,1455,1456,1,1,1,1,1,1,1,1,1465,1,1,1468,1469,1470,1471,1472,1473,1474,1475,1476,
1477,1478,1479,1480,1481,1,1,1,1,1,1,1,1,1,1,1,1,1,1,1,1,1,1,1,1987,1988,1989,1988,1989,1988,1989,1990,1,1,1,1,2316,2316,1,1,2316,2316,2316,2316,2316,1,1,1,1,1,1,1,1,1,1,1,1,1,1,1,2316,2316,1,1,1,1,1,1,1,1987,1988,1990,1,1,1,1,2316,2316,2316,2316,1,1,1,1,1,1,1,1,1,1,1,1,1,1,1,1,1,2153,2317,2317,2317,1,1,1,1,1,1987,1988,1988,1990,1,1,1987,1988,1988,1990,1,1,1,1,1,1,1,1,1,1,1,1,1615,1616,1617,1618,1619,1620,1,1,1,1,1,1,1,1,1629,1,1,1632,1633,1634,1635,1636,1637,1638,1639,1640,
1641,1642,1643,1644,1645,1,1,1,1,1,1,1,1,1,1,1,1,1,1,1,1,1,1,1,1,2152,2152,2152,2152,2152,2153,1,1,1,1,1,2316,2316,1,1,2316,2316,2316,2316,2316,1,1,1,1,1,1,1,1,1,1,1,1,1,1700,1,2316,2316,1,1,1,1,1,1,1,1,2316,1,1,1,1,1,2316,2316,2316,2316,1,1,1,1,1,1,1,1,1,1,1,1,1,1,1,1,1,2317,2316,2316,2317,1,1,1,1,1,1,2152,2153,1,1,1,1,2152,2153,1,1,1,1,1,1,1,1,1,1,1,1,1,1779,1780,1781,1782,1783,1784,1,1,1,1,1,1,1,1,1793,1,1,1796,1797,1798,1799,1800,1801,1802,1803,1804,
1805,1806,1807,1808,1809,1,1,1,1,1,1,1,1,1,1,1,1,1,1,1,1,1,1,1,1,2316,2316,2316,2316,2316,2317,1,1,1,1,1,2316,2316,1,1,2316,2316,2316,2316,2316,1,1,1,1,1,1,1,1,1,1,1,1,1,1,1,2316,2316,1,1,1,1,1,1,1,1,2316,1,1,1,1,1,2316,2316,2316,2316,1,1,1,1,1,1,1,1,1,1,1,1,1,1,1,1,1,2153,2153,2317,2317,1,1,1,1,1,1,2316,2317,1,1,1,1,2316,2317,1,1,1,1,1,1,1,1,1,1,1,1,1,1943,1944,1945,1946,1947,1948,1,1,1,1,1,1,1,1,1957,1,1,1960,1961,1962,1963,1964,1965,1966,1967,1968,
1969,1970,1971,1972,1973,1,1,1,1,1,1,1,1,1,1,1,1,1,1987,1988,1989,1990,1,1,1,2316,2317,2316,2316,2316,2317,1,1987,1989,1990,1,2316,2316,1,1,2316,2316,2316,2316,2316,1,1,1,1,1,1,1,1,1,1,1,1,1,1,1,2316,2316,1,1,1,1,1,1,1,1,2316,1,1,1,1,1,2316,2316,2316,2316,1,1,1,1,1,1,1,1,1,1,1,1,1,1,1,1,1,2317,2317,2316,2317,1,1,1,1,1,1,2316,2317,1,1,1,1,2316,2317,1,1,1,1,1,1,1,1,1,1,1,1,1,2107,2108,2109,2110,2111,2112,1,1,1,1,1,1,1,1,2121,1,1,2124,2125,2126,2127,2128,2129,2130,2131,2132,
2133,2134,2135,2136,2137,2138,2139,2140,2141,2142,2143,2144,2145,2146,2147,2148,1,1,1,2152,2153,1,1,1,1,2152,2153,2152,2153,2152,2153,1,1,2152,1,1,2316,2316,1,1,2316,2316,2316,2316,2316,1,1,1,1,1987,1988,1988,1990,1,1,1,1,1,1987,1988,1988,1988,1990,1,1987,1988,1988,1988,1990,1,2316,1,1,1,1,1,2316,2316,2316,2316,1,1,1,1,1,1,1,1,1,1,1,1,1,1,1,1,1,2152,2153,2316,2317,1,1,1,1,1,1,2152,2153,1,1,1,1,2316,2317,1,1,1,1,2262,2263,2264,2265,2266,2267,2268,2269,2270,2271,2272,2273,2274,2275,2276,2277,2278,2279,2280,2281,2282,2283,2284,2285,2286,2287,2288,2289,2290,2291,2292,2293,2294,2295,2296,
2297,2298,2299,2300,2301,2302,2303,2304,2305,2306,2307,2308,2309,2310,2311,2312,2313,2313,2313,2316,2317,2313,2313,2313,2313,2316,2317,2316,2317,2316,2317,2313,2313,2316,2313,2313,2316,2316,2313,2313,2316,2316,2316,2316,2316,2313,2313,2313,2313,2313,2316,2316,2313,2313,2313,2313,2313,2313,2313,2316,2316,2316,2313,2313,2313,2316,2316,2316,2313,2313,2316,2313,2313,2313,2313,2313,2316,2316,2316,2316,2313,2313,2313,2313,2313,2313,2313,2313,2313,2313,2313,2313,2313,2313,2313,2313,2313,2316,2317,2316,2317,2313,2313,2313,2313,2313,2313,2316,2317,2313,2313,2313,2313,2316,2317,2313,2313,2313,2313,2426,2427,2428,2429,2430,2431,2432,2433,2434,2435,2436,2437,2438,2439,2440,2441,2442,2443,2444,2445,2446,2447,2448,2449,2450,2451,2452,2453,2454,2455,2456,2457,2458,2459,2460
</data>
 </layer>
 <objectgroup id="2" name="Lift">
  <object id="1" name="Lift" x="1968.33" y="120.333">
   <properties>
    <property name="holes" type="int" value="6"/>
    <property name="motionType" value="leftright"/>
    <property name="range" type="float" value="70"/>
    <property name="speed" type="float" value="60"/>
   </properties>
  </object>
  <object id="2" name="PlayerSpawn" x="130" y="209.5"/>
  <object id="3" name="Lift" x="1365.5" y="134">
   <properties>
    <property name="holes" type="int" value="6"/>
    <property name="motionType" value="leftright"/>
    <property name="range" type="float" value="50"/>
    <property name="speed" type="float" value="60"/>
   </properties>
  </object>
  <object id="5" name="Lift" x="1471" y="157">
   <properties>
    <property name="holes" type="int" value="4"/>
    <property name="motionType" value="leftright"/>
    <property name="range" type="float" value="40"/>
    <property name="speed" type="float" value="60"/>
   </properties>
  </object>
  <object id="6" name="Coin" x="440.5" y="85.5"/>
  <object id="7" x="408.5" y="-61" height="0.5"/>
  <object id="8" name="Coin" x="456.5" y="85"/>
  <object id="9" name="Coin" x="472" y="85"/>
  <object id="10" name="Coin" x="535.5" y="196.5"/>
  <object id="11" name="Coin" x="587.5" y="57"/>
  <object id="12" name="Coin" x="603.5" y="57"/>
  <object id="13" name="Coin" x="789.5" y="119.5"/>
  <object id="14" name="Coin" x="805" y="119.5"/>
  <object id="15" name="Lift" x="873.5" y="161">
   <properties>
    <property name="holes" type="int" value="6"/>
    <property name="motionType" value="updown"/>
    <property name="range" type="float" value="50"/>
    <property name="speed" type="float" value="60"/>
   </properties>
  </object>
  <object id="16" name="Coin" x="1332" y="77.5"/>
  <object id="17" name="Coin" x="1349.5" y="77.5"/>
  <object id="18" name="Coin" x="1435" y="64"/>
  <object id="19" name="Coin" x="1452" y="64"/>
  <object id="20" name="Coin" x="1504.5" y="65.5"/>
  <object id="21" name="Coin" x="1522" y="65.5"/>
  <object id="22" name="Coin" x="1711" y="148"/>
  <object id="23" name="Coin" x="1728" y="148"/>
  <object id="24" name="Coin" x="1745" y="148"/>
 </objectgroup>
</map>
